X: 40571
T: Tommy Tourish's
R: jig
M: 6/8
K: Adorian
|:eAA cBA|eAA Bcd|eAA cBA|dBG Bcd|
eAA cBA|eAA Bcd|faf g2e|dBG Bcd:|
|:c3 cde|dcd efg|c3 edc|AB^c dBG|
c3 GAB|dcd efg|faf g2e|dBG Bcd:|

